src/assets/img/skull.svg

<svg clip-rule="evenodd" fill-rule="evenodd" stroke-linejoin="round" stroke-miterlimit="2" viewBox="0 0 73 87" xmlns="http://www.w3.org/2000/svg"><g fill="#ed2e15" fill-opacity=".25" fill-rule="nonzero" transform="translate(-13.8237 -6.533)"><path d="m51.35 85.74c-.652-.045-1.354 4.546-1.354 6.873 0 .755.514.854 1.646.854 1.056 0 1.228-.203 1.396-.729.301-.926-1.036-6.949-1.688-6.998z"/><path d="m54.483 87.307c-.667-.076-1.414 4.305-1.209 5.354.092.481 1.007.388 1.465.354.458-.031 1.543-.388 1.496-1.723-.045-1.332-1.086-3.905-1.752-3.985z"/><path d="m57.896 86.051c-.404-.007-1.393 2.516-1.383 4.889.002.92.9 1.271 1.619 1.369.737.104 1.281-.379 1.498-1.076.219-.698.039-5.149-1.734-5.182z"/><path d="m61.416 86.252c-.485-.229-1.465 2.121-1.488 3.012-.017.588.101.875.293 1.463.233.705 1.798-.465 1.903-.961.108-.495-.172-3.256-.708-3.514z"/><path d="m63.211 85.312c-.259.056-.831 1.715-.874 2.729-.011.258.065 1.465.263 1.423.189-.044.406-.581.549-.519.14.062.475-.27.72-.537.249-.271-.03-.596-.052-1.102-.023-.507-.348-2.048-.606-1.994z"/><path d="m65.229 83.643c-.378.066-1.047 1.771-1.165 2.354 0 0-.087 1.163.228 1.396.312.229.288-.43.551-.533.261-.108.591-.496.722-.861.126-.373.038-2.423-.336-2.356z"/><path d="m48.646 85.74c-.65.049-1.989 6.072-1.69 6.998.172.525.342.729 1.396.729 1.132 0 1.646-.1 1.646-.854.001-2.327-.699-6.918-1.352-6.873z"/><path d="m45.513 87.307c-.666.08-1.705 2.653-1.754 3.986-.047 1.335 1.04 1.689 1.499 1.723.457.031 1.37.127 1.466-.354.203-1.053-.545-5.433-1.211-5.355z"/><path d="m42.101 86.051c-1.772.033-1.954 4.484-1.737 5.182.217.699.761 1.182 1.498 1.076.721-.099 1.62-.449 1.623-1.369.006-2.376-.982-4.896-1.384-4.889z"/><path d="m38.581 86.252c-.537.258-.812 3.02-.707 3.514.108.496 1.671 1.666 1.902.961.191-.588.31-.875.295-1.463-.026-.891-1.004-3.243-1.49-3.012z"/><path d="m36.786 85.312c-.258-.057-.583 1.485-.604 1.994-.022.506-.306.829-.057 1.102.248.27.581.602.723.537.14-.063.355.475.551.519.193.042.271-1.165.26-1.423-.045-1.014-.615-2.673-.873-2.729z"/><path d="m34.769 83.643c-.377-.064-.465 1.983-.334 2.354.129.363.462.753.721.859.261.105.239.767.551.533.313-.229.229-1.395.229-1.395-.122-.582-.789-2.285-1.167-2.351z"/><path d="m83.613 53.809c1.421-2.555 2.896-9.592 2.498-12.372s-2.214-4.996-2.498-10.046c-.284-5.051-4.596-13.734-10.61-17.31-6.019-3.575-15.042-7.548-23.004-7.548-7.963 0-16.984 3.973-23.003 7.548-6.016 3.575-10.329 12.259-10.613 17.31-.281 5.05-2.099 7.266-2.493 10.046-.399 2.78 1.074 9.817 2.493 12.372.115 4.711.284 6.695 1.762 7.549-.908 1.134-2.95 3.648-2.496 5.312.453 1.665 3.519 6.944 5.445 8.194 1.932 1.247 4.599.737 6.866 1.589 2.271.852 6.358.906 6.698 2.496.34 1.589.17 4.48.17 4.48.755.006 1.174 2.172 1.365 2.172.19 0 .12-.842.647-.721.527.119.813 1.893 1.029 1.915.217.022.288-1.058.865-.963.577.099.964 1.373 1.371 1.442.409.072 1.111-1.803 1.954-1.731.843.073 1.388 2.497 1.917 2.521.527.023.941-1.457 1.473-1.457.528 0 .932 1.48 1.463 1.457.528-.023 1.035-3.387 1.803-3.34.771.049.986 2.741 1.281 2.741s.511-2.692 1.281-2.741c.769-.047 1.274 3.314 1.804 3.34.529.024.934-1.457 1.461-1.457.53 0 .945 1.48 1.476 1.457.528-.023 1.073-2.447 1.916-2.521.843-.069 1.545 1.806 1.954 1.731.407-.069.794-1.348 1.369-1.442.577-.095.649.985.864.963.219-.022.503-1.796 1.031-1.915.529-.121.458.721.649.721.19 0 .607-2.166 1.362-2.172 0 0-.17-2.894.172-4.48.341-1.59 4.427-1.646 6.696-2.496 2.271-.852 4.938-.342 6.865-1.589 1.931-1.25 4.995-6.529 5.449-8.194.452-1.664-1.592-4.181-2.497-5.312 1.481-.854 1.652-2.838 1.765-7.549zm-61.809 3.212c-.047 3.136-.117 5.422-.632 6.317l-.213.373-.429-.03c-.124-.01-.245-.021-.365-.033-.643-.061-.824-.056-1.008.149-.134.146-.32.226-.508.226-.16 0-.324-.059-.453-.174-.28-.252-.303-.685-.052-.965.608-.676 1.323-.667 1.979-.605.256-1.088.293-3.656.317-5.275.016-1.109.027-2.07.086-2.688.185-2.049.608-3.318 2.768-5.881 1.522-1.812.979-4.421.292-7.719-.146-.718-.304-1.457-.439-2.223-.066-.37.178-.725.548-.792.368-.065.724.18.791.549.137.749.29 1.479.436 2.188.732 3.517 1.366 6.555-.583 8.872-2.017 2.399-2.297 3.404-2.453 5.129-.053.568-.066 1.547-.082 2.582zm16.031 12.394c-.618 0-1.683.079-1.846.604-.091.291-.36.479-.649.479-.065 0-.135-.012-.2-.031-.36-.107-.562-.49-.449-.853.318-1.035 1.38-1.562 3.146-1.562.378 0 .684.308.684.683-.005.372-.31.68-.686.68zm5.756-12.077c-.671 3.32-4.508 7.71-10.637 9.096-6.13 1.385-8.58-3.519-9.214-8.226-.631-4.704 1.622-6.405 6.485-8.461 4.862-2.058 8.343-1.662 10.717.199 2.375 1.857 2.951 5.917 2.649 7.392zm9.394 21.197c-1.645 1.58-2.475 1.461-2.986 1.5-.515.04-1.346.08-2.982-1.5-1.645-1.582-4.176-3.76-2.987-8.266 1.188-4.51 2.688-10.281 3.758-10.598 1.066-.316 1.066.479 2.214.479 1.146 0 1.146-.795 2.215-.479 1.066.312 2.57 6.088 3.759 10.598 1.179 4.506-1.351 6.684-2.991 8.266zm11.876-8.067c-.067.021-.135.031-.202.031-.292 0-.561-.188-.649-.479-.165-.523-1.228-.604-1.848-.604-.378 0-.683-.309-.683-.682 0-.375.305-.683.683-.683 1.769 0 2.826.527 3.147 1.562.11.364-.092.744-.448.855zm11.391-12.26c-.631 4.707-3.084 9.608-9.211 8.226-6.131-1.386-9.966-5.773-10.638-9.096-.299-1.475.274-5.535 2.646-7.392 2.372-1.861 5.854-2.257 10.718-.199 4.865 2.056 7.118 3.757 6.485 8.461zm5.546 5.642c-.131.116-.293.174-.456.174-.186 0-.369-.075-.506-.225-.185-.205-.363-.21-1.009-.15-.119.013-.24.024-.365.033l-.428.031-.213-.373c-.513-.896-.585-3.184-.63-6.318-.017-1.032-.03-2.015-.081-2.582-.156-1.727-.438-2.729-2.453-5.129-1.949-2.317-1.317-5.355-.585-8.872.146-.708.299-1.438.436-2.188.066-.369.426-.614.792-.549.369.067.615.422.549.792-.141.766-.292 1.505-.441 2.223-.688 3.298-1.229 5.906.294 7.719 2.155 2.562 2.582 3.833 2.768 5.879.059.617.069 1.578.086 2.688.024 1.619.062 4.188.317 5.274.652-.061 1.369-.067 1.979.606.251.283.227.715-.054.967z"/></g></svg>

<?xml version="1.0" encoding="UTF-8" standalone="no"?>
<!DOCTYPE svg PUBLIC "-//W3C//DTD SVG 1.1//EN" "http://www.w3.org/Graphics/SVG/1.1/DTD/svg11.dtd">
<svg width="100%" height="100%" viewBox="0 0 73 87" version="1.1" xmlns="http://www.w3.org/2000/svg" xmlns:xlink="http://www.w3.org/1999/xlink" xml:space="preserve" xmlns:serif="http://www.serif.com/" style="fill-rule:evenodd;clip-rule:evenodd;stroke-linejoin:round;stroke-miterlimit:2;">
    <g transform="matrix(1,0,0,1,-13.8237,-6.533)">
        <path d="M51.35,85.74C50.698,85.695 49.996,90.286 49.996,92.613C49.996,93.368 50.51,93.467 51.642,93.467C52.698,93.467 52.87,93.264 53.038,92.738C53.339,91.812 52.002,85.789 51.35,85.74Z" style="fill:rgb(237,46,21);fill-opacity:0.25;fill-rule:nonzero;"/>
        <path d="M54.483,87.307C53.816,87.231 53.069,91.612 53.274,92.661C53.366,93.142 54.281,93.049 54.739,93.015C55.197,92.984 56.282,92.627 56.235,91.292C56.19,89.96 55.149,87.387 54.483,87.307Z" style="fill:rgb(237,46,21);fill-opacity:0.25;fill-rule:nonzero;"/>
        <path d="M57.896,86.051C57.492,86.044 56.503,88.567 56.513,90.94C56.515,91.86 57.413,92.211 58.132,92.309C58.869,92.413 59.413,91.93 59.63,91.233C59.849,90.535 59.669,86.084 57.896,86.051Z" style="fill:rgb(237,46,21);fill-opacity:0.25;fill-rule:nonzero;"/>
        <path d="M61.416,86.252C60.931,86.023 59.951,88.373 59.928,89.264C59.911,89.852 60.029,90.139 60.221,90.727C60.454,91.432 62.019,90.262 62.124,89.766C62.232,89.271 61.952,86.51 61.416,86.252Z" style="fill:rgb(237,46,21);fill-opacity:0.25;fill-rule:nonzero;"/>
        <path d="M63.211,85.312C62.952,85.368 62.38,87.027 62.337,88.041C62.326,88.299 62.402,89.506 62.6,89.464C62.789,89.42 63.006,88.883 63.149,88.945C63.289,89.007 63.624,88.675 63.869,88.408C64.118,88.137 63.839,87.812 63.817,87.306C63.794,86.799 63.469,85.258 63.211,85.312Z" style="fill:rgb(237,46,21);fill-opacity:0.25;fill-rule:nonzero;"/>
        <path d="M65.229,83.643C64.851,83.709 64.182,85.414 64.064,85.997C64.064,85.997 63.977,87.16 64.292,87.393C64.604,87.622 64.58,86.963 64.843,86.86C65.104,86.752 65.434,86.364 65.565,85.999C65.691,85.626 65.603,83.576 65.229,83.643Z" style="fill:rgb(237,46,21);fill-opacity:0.25;fill-rule:nonzero;"/>
        <path d="M48.646,85.74C47.996,85.789 46.657,91.812 46.956,92.738C47.128,93.263 47.298,93.467 48.352,93.467C49.484,93.467 49.998,93.367 49.998,92.613C49.999,90.286 49.299,85.695 48.646,85.74Z" style="fill:rgb(237,46,21);fill-opacity:0.25;fill-rule:nonzero;"/>
        <path d="M45.513,87.307C44.847,87.387 43.808,89.96 43.759,91.293C43.712,92.628 44.799,92.982 45.258,93.016C45.715,93.047 46.628,93.143 46.724,92.662C46.927,91.609 46.179,87.229 45.513,87.307Z" style="fill:rgb(237,46,21);fill-opacity:0.25;fill-rule:nonzero;"/>
        <path d="M42.101,86.051C40.329,86.084 40.147,90.535 40.364,91.233C40.581,91.932 41.125,92.415 41.862,92.309C42.583,92.21 43.482,91.86 43.485,90.94C43.491,88.564 42.503,86.044 42.101,86.051Z" style="fill:rgb(237,46,21);fill-opacity:0.25;fill-rule:nonzero;"/>
        <path d="M38.581,86.252C38.044,86.51 37.769,89.272 37.874,89.766C37.982,90.262 39.545,91.432 39.776,90.727C39.967,90.139 40.086,89.852 40.071,89.264C40.045,88.373 39.067,86.021 38.581,86.252Z" style="fill:rgb(237,46,21);fill-opacity:0.25;fill-rule:nonzero;"/>
        <path d="M36.786,85.312C36.528,85.255 36.203,86.797 36.182,87.306C36.16,87.812 35.876,88.135 36.125,88.408C36.373,88.678 36.706,89.01 36.848,88.945C36.988,88.882 37.203,89.42 37.399,89.464C37.592,89.506 37.67,88.299 37.659,88.041C37.614,87.027 37.044,85.368 36.786,85.312Z" style="fill:rgb(237,46,21);fill-opacity:0.25;fill-rule:nonzero;"/>
        <path d="M34.769,83.643C34.392,83.579 34.304,85.626 34.435,85.997C34.564,86.36 34.897,86.75 35.156,86.856C35.417,86.961 35.395,87.623 35.707,87.389C36.02,87.16 35.936,85.994 35.936,85.994C35.814,85.412 35.147,83.709 34.769,83.643Z" style="fill:rgb(237,46,21);fill-opacity:0.25;fill-rule:nonzero;"/>
        <path d="M83.613,53.809C85.034,51.254 86.509,44.217 86.111,41.437C85.713,38.657 83.897,36.441 83.613,31.391C83.329,26.34 79.017,17.657 73.003,14.081C66.984,10.506 57.961,6.533 49.999,6.533C42.036,6.533 33.015,10.506 26.996,14.081C20.98,17.656 16.667,26.34 16.383,31.391C16.102,36.441 14.284,38.657 13.89,41.437C13.491,44.217 14.964,51.254 16.383,53.809C16.498,58.52 16.667,60.504 18.145,61.358C17.237,62.492 15.195,65.006 15.649,66.67C16.102,68.335 19.168,73.614 21.094,74.864C23.026,76.111 25.693,75.601 27.96,76.453C30.231,77.305 34.318,77.359 34.658,78.949C34.998,80.538 34.828,83.429 34.828,83.429C35.583,83.435 36.002,85.601 36.193,85.601C36.383,85.601 36.313,84.759 36.84,84.88C37.367,84.999 37.653,86.773 37.869,86.795C38.086,86.817 38.157,85.737 38.734,85.832C39.311,85.931 39.698,87.205 40.105,87.274C40.514,87.346 41.216,85.471 42.059,85.543C42.902,85.616 43.447,88.04 43.976,88.064C44.503,88.087 44.917,86.607 45.449,86.607C45.977,86.607 46.381,88.087 46.912,88.064C47.44,88.041 47.947,84.677 48.715,84.724C49.486,84.773 49.701,87.465 49.996,87.465C50.291,87.465 50.507,84.773 51.277,84.724C52.046,84.677 52.551,88.038 53.081,88.064C53.61,88.088 54.015,86.607 54.542,86.607C55.072,86.607 55.487,88.087 56.018,88.064C56.546,88.041 57.091,85.617 57.934,85.543C58.777,85.474 59.479,87.349 59.888,87.274C60.295,87.205 60.682,85.926 61.257,85.832C61.834,85.737 61.906,86.817 62.121,86.795C62.34,86.773 62.624,84.999 63.152,84.88C63.681,84.759 63.61,85.601 63.801,85.601C63.991,85.601 64.408,83.435 65.163,83.429C65.163,83.429 64.993,80.535 65.335,78.949C65.676,77.359 69.762,77.303 72.031,76.453C74.302,75.601 76.969,76.111 78.896,74.864C80.827,73.614 83.891,68.335 84.345,66.67C84.797,65.006 82.753,62.489 81.848,61.358C83.329,60.504 83.5,58.52 83.613,53.809ZM21.804,57.021C21.757,60.157 21.687,62.443 21.172,63.338L20.959,63.711L20.53,63.681C20.406,63.671 20.285,63.66 20.165,63.648C19.522,63.587 19.341,63.592 19.157,63.797C19.023,63.943 18.837,64.023 18.649,64.023C18.489,64.023 18.325,63.964 18.196,63.849C17.916,63.597 17.893,63.164 18.144,62.884C18.752,62.208 19.467,62.217 20.123,62.279C20.379,61.191 20.416,58.623 20.44,57.004C20.456,55.895 20.467,54.934 20.526,54.316C20.711,52.267 21.134,50.998 23.294,48.435C24.816,46.623 24.273,44.014 23.586,40.716C23.44,39.998 23.282,39.259 23.147,38.493C23.081,38.123 23.325,37.768 23.695,37.701C24.063,37.636 24.419,37.881 24.486,38.25C24.623,38.999 24.776,39.729 24.922,40.438C25.654,43.955 26.288,46.993 24.339,49.31C22.322,51.709 22.042,52.714 21.886,54.439C21.833,55.007 21.82,55.986 21.804,57.021ZM37.835,69.415C37.217,69.415 36.152,69.494 35.989,70.019C35.898,70.31 35.629,70.498 35.34,70.498C35.275,70.498 35.205,70.486 35.14,70.467C34.78,70.36 34.578,69.977 34.691,69.614C35.009,68.579 36.071,68.052 37.837,68.052C38.215,68.052 38.521,68.36 38.521,68.735C38.516,69.107 38.211,69.415 37.835,69.415ZM43.591,57.338C42.92,60.658 39.083,65.048 32.954,66.434C26.824,67.819 24.374,62.915 23.74,58.208C23.109,53.504 25.362,51.803 30.225,49.747C35.087,47.689 38.568,48.085 40.942,49.946C43.317,51.803 43.893,55.863 43.591,57.338ZM52.985,78.535C51.34,80.115 50.51,79.996 49.999,80.035C49.484,80.075 48.653,80.115 47.017,78.535C45.372,76.953 42.841,74.775 44.03,70.269C45.218,65.759 46.718,59.988 47.788,59.671C48.854,59.355 48.854,60.15 50.002,60.15C51.148,60.15 51.148,59.355 52.217,59.671C53.283,59.983 54.787,65.759 55.976,70.269C57.155,74.775 54.625,76.953 52.985,78.535ZM64.861,70.468C64.794,70.489 64.726,70.499 64.659,70.499C64.367,70.499 64.098,70.311 64.01,70.02C63.845,69.497 62.782,69.416 62.162,69.416C61.784,69.416 61.479,69.107 61.479,68.734C61.479,68.359 61.784,68.051 62.162,68.051C63.931,68.051 64.988,68.578 65.309,69.613C65.419,69.977 65.217,70.357 64.861,70.468ZM76.252,58.208C75.621,62.915 73.168,67.816 67.041,66.434C60.91,65.048 57.075,60.661 56.403,57.338C56.104,55.863 56.677,51.803 59.049,49.946C61.421,48.085 64.903,47.689 69.767,49.747C74.632,51.803 76.885,53.504 76.252,58.208ZM81.798,63.85C81.667,63.966 81.505,64.024 81.342,64.024C81.156,64.024 80.973,63.949 80.836,63.799C80.651,63.594 80.473,63.589 79.827,63.649C79.708,63.662 79.587,63.673 79.462,63.682L79.034,63.713L78.821,63.34C78.308,62.444 78.236,60.156 78.191,57.022C78.174,55.99 78.161,55.007 78.11,54.44C77.954,52.713 77.672,51.711 75.657,49.311C73.708,46.994 74.34,43.956 75.072,40.439C75.218,39.731 75.371,39.001 75.508,38.251C75.574,37.882 75.934,37.637 76.3,37.702C76.669,37.769 76.915,38.124 76.849,38.494C76.708,39.26 76.557,39.999 76.408,40.717C75.72,44.015 75.179,46.623 76.702,48.436C78.857,50.998 79.284,52.269 79.47,54.315C79.529,54.932 79.539,55.893 79.556,57.003C79.58,58.622 79.618,61.191 79.873,62.277C80.525,62.216 81.242,62.21 81.852,62.883C82.103,63.166 82.079,63.598 81.798,63.85Z" style="fill:rgb(237,46,21);fill-opacity:0.25;fill-rule:nonzero;"/>
    </g>
</svg>
